Origami/48x48/apps/warzone2100.svg

<svg width="48" height="48" version="1" xmlns="http://www.w3.org/2000/svg">
 <rect x="7" y="24" width="34" height="12" rx="2" ry="2" style="opacity:.2"/>
 <path d="m14.371 24 4.629-8h10l5 8z" style="fill:#3f3f3f"/>
 <rect x="7" y="23" width="34" height="12" rx="2" ry="2" style="fill:#8e8e8e"/>
 <path d="m9 23c-1.108 0-2 0.892-2 2v6c0-1.108 0.892-2 2-2h30c1.108 0 2 0.892 2 2v-6c0-1.108-0.892-2-2-2z" style="fill:#ffffff;opacity:.1"/>
 <path d="m6 23c-1.108 0-2 0.892-2 2v1c0-1.108 0.892-2 2-2h34c1.108 0 2 0.892 2 2v-1c0-1.108-0.892-2-2-2z" style="fill:#ffffff;opacity:.1"/>
 <rect x="4" y="32" width="9" height="9" rx="1" ry="1" style="opacity:.2"/>
 <rect x="4" y="24" width="9" height="16" rx="1" ry="1" style="fill:#4f4f4f"/>
 <rect x="35" y="32" width="9" height="9" rx="1" ry="1" style="opacity:.2"/>
 <rect x="35" y="24" width="9" height="16" rx="1" ry="1" style="fill:#4f4f4f"/>
 <rect x="12" y="9" width="24" height="13" rx="2" ry="2.167" style="opacity:.2"/>
 <rect x="12" y="8" width="24" height="13" rx="2" ry="2" style="fill:#8e8e8e"/>
 <g style="fill:#3f3f3f">
  <rect x="14" y="10" width="4" height="4" rx="1" ry="1" style="fill:#3f3f3f"/>
  <rect x="19" y="10" width="4" height="4" rx="1" ry="1" style="fill:#3f3f3f"/>
  <rect x="25" y="10" width="4" height="4" rx="1" ry="1" style="fill:#3f3f3f"/>
  <rect x="30" y="10" width="4" height="4" rx="1" ry="1" style="fill:#3f3f3f"/>
  <rect x="30" y="15" width="4" height="4" rx="1" ry="1" style="fill:#3f3f3f"/>
  <rect x="25" y="15" width="4" height="4" rx="1" ry="1" style="fill:#3f3f3f"/>
  <rect x="19" y="15" width="4" height="4" rx="1" ry="1" style="fill:#3f3f3f"/>
  <rect x="14" y="15" width="4" height="4" rx="1" ry="1" style="fill:#3f3f3f"/>
 </g>
 <path d="m14 8c-1.108 0-2 0.892-2 2v1c0-1.108 0.892-2 2-2h20c1.108 0 2 0.892 2 2v-1c0-1.108-0.892-2-2-2h-20z" style="fill:#ffffff;opacity:.2"/>
 <rect x="4" y="28" width="9" height="4" style="fill:#3f3f3f"/>
 <path d="m4 36v3c0 0.554 0.446 1 1 1h7c0.554 0 1-0.446 1-1v-3h-9z" style="fill:#3f3f3f"/>
 <rect transform="scale(1,-1)" x="35" y="-36" width="9" height="4" style="fill:#3f3f3f"/>
 <path d="m35 28v-3c0-0.554 0.446-1 1-1h7c0.554 0 1 0.446 1 1v3h-9z" style="fill:#3f3f3f"/>
</svg>

<svg xmlns="http://www.w3.org/2000/svg" width="48" height="48" version="1">
 <rect style="opacity:0.2" width="34" height="12" x="7" y="24" rx="2" ry="2"/>
 <path style="fill:#3f3f3f" d="M 14.371,24 19,16 H 29 L 34,24 Z"/>
 <rect style="fill:#8e8e8e" width="34" height="12" x="7" y="23" rx="2" ry="2"/>
 <path style="opacity:0.1;fill:#ffffff" d="M 9,23 C 7.892,23 7,23.892 7,25 V 31 C 7,29.892 7.892,29 9,29 H 39 C 40.108,29 41,29.892 41,31 V 25 C 41,23.892 40.108,23 39,23 Z"/>
 <path style="opacity:0.1;fill:#ffffff" d="M 6,23 C 4.892,23 4,23.892 4,25 V 26 C 4,24.892 4.892,24 6,24 H 40 C 41.108,24 42,24.892 42,26 V 25 C 42,23.892 41.108,23 40,23 Z"/>
 <rect style="opacity:0.2" width="9" height="9" x="4" y="32" rx="1" ry="1"/>
 <rect style="fill:#4f4f4f" width="9" height="16" x="4" y="24" rx="1" ry="1"/>
 <rect style="opacity:0.2" width="9" height="9" x="35" y="32" rx="1" ry="1"/>
 <rect style="fill:#4f4f4f" width="9" height="16" x="35" y="24" rx="1" ry="1"/>
 <rect style="opacity:0.2" width="24" height="13" x="12" y="9" rx="2" ry="2.167"/>
 <rect style="fill:#8e8e8e" width="24" height="13" x="12" y="8" rx="2" ry="2"/>
 <g style="fill:#3f3f3f">
  <rect width="4" height="4" x="14" y="10" rx="1" ry="1" style="fill:#3f3f3f"/>
  <rect width="4" height="4" x="19" y="10" rx="1" ry="1" style="fill:#3f3f3f"/>
  <rect width="4" height="4" x="25" y="10" rx="1" ry="1" style="fill:#3f3f3f"/>
  <rect width="4" height="4" x="30" y="10" rx="1" ry="1" style="fill:#3f3f3f"/>
  <rect width="4" height="4" x="30" y="15" rx="1" ry="1" style="fill:#3f3f3f"/>
  <rect width="4" height="4" x="25" y="15" rx="1" ry="1" style="fill:#3f3f3f"/>
  <rect width="4" height="4" x="19" y="15" rx="1" ry="1" style="fill:#3f3f3f"/>
  <rect width="4" height="4" x="14" y="15" rx="1" ry="1" style="fill:#3f3f3f"/>
 </g>
 <path style="opacity:0.2;fill:#ffffff" d="M 14 8 C 12.892 8 12 8.892 12 10 L 12 11 C 12 9.892 12.892 9 14 9 L 34 9 C 35.108 9 36 9.892 36 11 L 36 10 C 36 8.892 35.108 8 34 8 L 14 8 z"/>
 <rect width="9" height="4" x="4" y="28" style="fill:#3f3f3f"/>
 <path style="fill:#3f3f3f" d="M 4 36 L 4 39 C 4 39.554 4.446 40 5 40 L 12 40 C 12.554 40 13 39.554 13 39 L 13 36 L 4 36 z"/>
 <rect style="fill:#3f3f3f" width="9" height="4" x="35" y="-36" transform="scale(1,-1)"/>
 <path d="m 35,28 0,-3 c 0,-0.554 0.446,-1 1,-1 l 7,0 c 0.554,0 1,0.446 1,1 l 0,3 -9,0 z" style="fill:#3f3f3f"/>
</svg>
